X: 42652
T: Whiskey The Dolphin
R: hornpipe
M: 4/4
K: Gmajor
|:(3BBB G>d d>BG>B|B>BG>d d>BG2|(3BBB c>A A>Ac>A|A>AF>A E>AD2|
(3BBB G>d d>BG>B|B>BG>d d>BG2|(3BBB c>B A>GF>D|(3DED G2 B2G2:|
|:(3AAA F2 (3AAA F2|(3AAA =F2 E2D2|(3AAA F>A A>AB>G|G>G(3BAG B>Bd2|
(3AAA F2 (3AAA F2|(3AAA =F2 E2D2|(3BBB c>B A>GF>D|(3DED G2 B2G2:|

